actions/22x22-light/milestone.svg

<svg viewBox="0 0 22 22" xmlns="http://www.w3.org/2000/svg"><path d="m4.0117188 3c-.560959 0-1.0117188.4507598-1.0117188 1.0117188v13.9765622c0 .560959.4507598 1.011719 1.0117188 1.011719h13.9765622c.560959 0 1.011719-.45076 1.011719-1.011719v-13.9765622c0-.560959-.45076-1.0117188-1.011719-1.0117188zm6.9882812 3.2304688c.12016 0 .218872.0837762.294922.2480468l1.351562 2.734375 3.017578.4375c.224537.0360702.335938.1290798.335938.2773438 0 .0881466-.051949.1829556-.15625.2871096l-2.181641 2.128906.517579 3.003906c.004056.028104.005859.069017.005859.121094 0 .084164-.020529.154765-.0625.212891-.042045.058199-.103266.08789-.183594.08789-.075976 0-.155997-.024172-.240234-.072265l-2.699219-1.419922-2.6992188 1.419922c-.0881468.048167-.1680939.072265-.2402343.072265-.0841638 0-.1474081-.029765-.1894531-.08789-.0420451-.0582-.0625-.128727-.0625-.212891-.0000001-.023973.0036785-.06496.0117187-.121094l.5175781-3.003906-2.1875-2.128906c-.1001704-.108137-.1503906-.202946-.1503906-.2871096 0-.148264.1116237-.2412736.3359375-.2773438l3.0175781-.4375 1.3515624-2.734375c.076124-.1642706.174762-.2480469.294922-.2480468z" fill="#4d4d4d"/></svg>

<svg xmlns="http://www.w3.org/2000/svg" viewBox="0 0 22 22">
  <defs id="defs3051">
    <style type="text/css" id="current-color-scheme">
      .ColorScheme-Text {
        color:#4d4d4d
      }
      </style>
  </defs>
 <path 
     style="fill:currentColor;fill-opacity:1;stroke:none"      
	 class="ColorScheme-Text"
        d="M 4.0117188 3 C 3.4507598 3 3 3.4507598 3 4.0117188 L 3 17.988281 C 3 18.54924 3.4507598 19 4.0117188 19 L 17.988281 19 C 18.54924 19 19 18.54924 19 17.988281 L 19 4.0117188 C 19 3.4507598 18.54924 3 17.988281 3 L 4.0117188 3 z M 11 6.2304688 C 11.12016 6.2304688 11.218872 6.314245 11.294922 6.4785156 L 12.646484 9.2128906 L 15.664062 9.6503906 C 15.888599 9.6864608 16 9.7794704 16 9.9277344 C 16 10.015881 15.948051 10.11069 15.84375 10.214844 L 13.662109 12.34375 L 14.179688 15.347656 C 14.183744 15.37576 14.185547 15.416673 14.185547 15.46875 C 14.185547 15.552914 14.165018 15.623515 14.123047 15.681641 C 14.081002 15.73984 14.019781 15.769531 13.939453 15.769531 C 13.863477 15.769531 13.783456 15.745359 13.699219 15.697266 L 11 14.277344 L 8.3007812 15.697266 C 8.2126344 15.745433 8.1326873 15.769531 8.0605469 15.769531 C 7.9763831 15.769531 7.9131388 15.739766 7.8710938 15.681641 C 7.8290487 15.623441 7.8085938 15.552914 7.8085938 15.46875 C 7.8085937 15.444777 7.8122723 15.40379 7.8203125 15.347656 L 8.3378906 12.34375 L 6.1503906 10.214844 C 6.0502202 10.106707 6 10.011898 6 9.9277344 C 6 9.7794704 6.1116237 9.6864608 6.3359375 9.6503906 L 9.3535156 9.2128906 L 10.705078 6.4785156 C 10.781202 6.314245 10.87984 6.2304687 11 6.2304688 z "
     />
</svg>
